packages/ffe-icons/icons/filled/sm/view_week.svg

<svg xmlns="http://www.w3.org/2000/svg" height="20" viewBox="0 -960 960 960" width="20"><path d="M169.539-212.001q-22.392 0-37.965-15.585-15.573-15.585-15.573-37.993v-429.166q0-22.408 15.573-37.831 15.573-15.423 37.965-15.423h100.925q22.007 0 37.772 15.777 15.765 15.777 15.765 37.801v429.166q0 22.024-15.765 37.639-15.765 15.615-37.772 15.615H169.539Zm259.613 0q-22.007 0-37.772-15.777-15.765-15.777-15.765-37.801v-429.166q0-22.024 15.765-37.639 15.765-15.615 37.772-15.615h101.311q22.007 0 37.772 15.777Q584-716.445 584-694.421v429.166q0 22.024-15.765 37.639-15.765 15.615-37.772 15.615H429.152Zm260.384 0q-22.007 0-37.772-15.777-15.765-15.777-15.765-37.801v-429.166q0-22.024 15.765-37.639 15.765-15.615 37.772-15.615h100.925q22.392 0 37.965 15.585 15.573 15.585 15.573 37.993v429.166q0 22.408-15.573 37.831-15.573 15.423-37.965 15.423H689.536Z"/></svg>

<svg xmlns="http://www.w3.org/2000/svg" height="20" viewBox="0 -960 960 960" width="20"><path d="M169.54-212q-22.39 0-37.97-15.59Q116-243.17 116-265.58v-429.16q0-22.41 15.57-37.84Q147.15-748 169.54-748h100.92q22.01 0 37.78 15.78Q324-716.44 324-694.42v429.16q0 22.03-15.76 37.64Q292.47-212 270.46-212H169.54Zm259.61 0q-22 0-37.77-15.78-15.76-15.78-15.76-37.8v-429.16q0-22.03 15.76-37.64Q407.15-748 429.15-748h101.31q22.01 0 37.77 15.78Q584-716.44 584-694.42v429.16q0 22.03-15.77 37.64Q552.47-212 530.46-212H429.15Zm260.39 0q-22.01 0-37.78-15.78Q636-243.56 636-265.58v-429.16q0-22.03 15.76-37.64Q667.53-748 689.54-748h100.92q22.39 0 37.97 15.59Q844-716.83 844-694.42v429.16q0 22.41-15.57 37.84Q812.85-212 790.46-212H689.54Z"/></svg>
